chess-client/components/Chess/_/images/blackQueen.svg

<svg viewBox="0 0 160 160" xmlns="http://www.w3.org/2000/svg"><path d="M72.36 10.14c1.27-2.41 3.35-4.48 5.74-5.77 3.77-1.41 6.7 2.26 8.73 4.88 2.15 3.01-.46 6.19-2.65 8.24 2.9 4.62 5.8 9.24 8.63 13.91 4.94-2.62 9.83-5.33 14.76-7.97-1.37-2.4-2.71-5.83-.21-8.02 2.63-2.09 6.54-4.93 9.84-2.56 2 1.88 3.49 4.45 4.06 7.14.36 3.27-2.83 4.98-5.25 6.3-1.37 5.54-2.4 11.14-3.62 16.71 5.22.01 10.44-.04 15.67.04-1.81 9.3-3.35 18.65-5.07 27.96-3.66-.01-7.33.01-10.99 0v12c-4.64 0-9.28-.01-13.92.01v10.98c4.64.01 9.28.01 13.92.01v15.99c-1.85.01-3.71.01-5.56.02 3.82 7.33 7.65 14.67 11.48 21.99 3.36-.01 6.72.01 10.08 0v16H32v-16c3.36.01 6.72-.01 10.08 0 3.83-7.32 7.66-14.66 11.47-21.99-1.85-.01-3.7-.01-5.55-.01V94h13.92V83.01C57.28 82.99 52.64 83 48 83V71c-3.67.01-7.33-.01-10.99 0-1.71-9.32-3.27-18.66-5.06-27.96 5.06-.08 10.13-.03 15.2-.04-1.25-5.55-2.19-11.17-3.61-16.67-2.01-2.35-6.19-4.05-5.07-7.9 1.42-3.24 3.9-7.77 8.12-6.99 2.61 1 5.19 2.63 6.73 5.01 1.34 2.41-.31 4.87-1.53 6.9 5.11 2.83 10.17 5.75 15.35 8.47 2.69-4.8 5.75-9.39 8.6-14.1-1.96-1.97-4.69-4.49-3.38-7.58m3.36 1.81c1.36 1.36 2.75 2.7 4.18 3.99 1.35-1.34 2.69-2.69 4.04-4.04a88.33 88.33 0 0 0-4.03-4.18 31.603 31.603 0 0 0-4.19 4.23m-33.65 7.92a45.63 45.63 0 0 0 4.81 3.2c1.18-1.53 2.24-3.15 3.17-4.85-1.56-1.18-3.19-2.28-4.97-3.09-1.03 1.56-2.04 3.14-3.01 4.74m68.03-1.57c-.37 2.03 1.64 3.68 2.69 5.26 1.52-.96 3.07-1.87 4.67-2.7-.74-1.79-1.64-3.51-2.65-5.16-1.63.74-3.36 1.39-4.71 2.6M69.66 37.88c-7.35-3.76-14.22-8.55-21.87-11.65 1 5.62 2.32 11.17 3.44 16.76 19.02.03 38.04 0 57.06.01 1.13-5.38 2.33-10.75 3.36-16.16-1.65-.28-3.09.6-4.48 1.32-5.51 3.05-11.06 6.03-16.59 9.04-2.28-6.64-6.45-12.51-10.55-18.14-4.05 5.87-8.76 11.72-10.37 18.82m-32.87 9.13c1.17 6.66 2.39 13.31 3.54 19.97 26.45.03 52.89.03 79.34 0 1.15-6.66 2.37-13.31 3.54-19.97-28.81-.01-57.61-.01-86.42 0M52 71v8h56v-8H52m13.93 12.01c-.01 3.66-.01 7.32 0 10.98 9.38.01 18.76.01 28.14 0 .01-3.66.01-7.32 0-10.98-9.38-.01-18.76-.01-28.14 0M52 98v8h56v-8H52m6.09 12c-3.84 7.32-7.66 14.65-11.47 21.99 22.25.02 44.51.02 66.76 0-3.81-7.34-7.63-14.67-11.47-21.99H58.09M36 136v8h88v-8H36z"/><path d="M75.72 11.95c1.27-1.54 2.66-2.96 4.19-4.23a88.33 88.33 0 0 1 4.03 4.18c-1.35 1.35-2.69 2.7-4.04 4.04-1.43-1.29-2.82-2.63-4.18-3.99zm-33.65 7.92c.97-1.6 1.98-3.18 3.01-4.74 1.78.81 3.41 1.91 4.97 3.09-.93 1.7-1.99 3.32-3.17 4.85a45.63 45.63 0 0 1-4.81-3.2zm68.03-1.57c1.35-1.21 3.08-1.86 4.71-2.6 1.01 1.65 1.91 3.37 2.65 5.16-1.6.83-3.15 1.74-4.67 2.7-1.05-1.58-3.06-3.23-2.69-5.26zM69.66 37.88c1.61-7.1 6.32-12.95 10.37-18.82 4.1 5.63 8.27 11.5 10.55 18.14 5.53-3.01 11.08-5.99 16.59-9.04 1.39-.72 2.83-1.6 4.48-1.32-1.03 5.41-2.23 10.78-3.36 16.16-19.02-.01-38.04.02-57.06-.01-1.12-5.59-2.44-11.14-3.44-16.76 7.65 3.1 14.52 7.89 21.87 11.65zm-32.87 9.13c28.81-.01 57.61-.01 86.42 0-1.17 6.66-2.39 13.31-3.54 19.97-26.45.03-52.89.03-79.34 0-1.15-6.66-2.37-13.31-3.54-19.97zM52 71h56v8H52v-8zm13.93 12.01c9.38-.01 18.76-.01 28.14 0 .01 3.66.01 7.32 0 10.98-9.38.01-18.76.01-28.14 0-.01-3.66-.01-7.32 0-10.98zM52 98h56v8H52v-8zm6.09 12h43.82c3.84 7.32 7.66 14.65 11.47 21.99-22.25.02-44.51.02-66.76 0 3.81-7.34 7.63-14.67 11.47-21.99zM36 136h88v8H36v-8z" fill="#0078d7"/></svg>

<?xml version="1.0" encoding="UTF-8" ?>
<!DOCTYPE svg PUBLIC "-//W3C//DTD SVG 1.1//EN" "http://www.w3.org/Graphics/SVG/1.1/DTD/svg11.dtd">
<svg width="160pt" height="160pt" viewBox="0 0 160 160" version="1.1" xmlns="http://www.w3.org/2000/svg">
<g id="#000000ff">
<path fill="#000000" opacity="1.00" d=" M 72.36 10.14 C 73.63 7.73 75.71 5.66 78.10 4.37 C 81.87 2.96 84.80 6.63 86.83 9.25 C 88.98 12.26 86.37 15.44 84.18 17.49 C 87.08 22.11 89.98 26.73 92.81 31.40 C 97.75 28.78 102.64 26.07 107.57 23.43 C 106.20 21.03 104.86 17.60 107.36 15.41 C 109.99 13.32 113.90 10.48 117.20 12.85 C 119.20 14.73 120.69 17.30 121.26 19.99 C 121.62 23.26 118.43 24.97 116.01 26.29 C 114.64 31.83 113.61 37.43 112.39 43.00 C 117.61 43.01 122.83 42.96 128.06 43.04 C 126.25 52.34 124.71 61.69 122.99 71.00 C 119.33 70.99 115.66 71.01 112.00 71.00 C 112.00 75.00 112.00 79.00 112.00 83.00 C 107.36 83.00 102.72 82.99 98.08 83.01 C 98.08 86.67 98.08 90.33 98.08 93.99 C 102.72 94.00 107.36 94.00 112.00 94.00 C 112.00 99.33 112.00 104.66 112.00 109.99 C 110.15 110.00 108.29 110.00 106.44 110.01 C 110.26 117.34 114.09 124.68 117.92 132.00 C 121.28 131.99 124.64 132.01 128.00 132.00 C 128.00 137.33 128.00 142.67 128.00 148.00 C 96.00 148.00 64.00 148.00 32.00 148.00 C 32.00 142.67 32.00 137.33 32.00 132.00 C 35.36 132.01 38.72 131.99 42.08 132.00 C 45.91 124.68 49.74 117.34 53.55 110.01 C 51.70 110.00 49.85 110.00 48.00 110.00 C 48.00 104.66 48.00 99.33 48.00 94.00 C 52.64 94.00 57.28 94.00 61.92 94.00 C 61.92 90.33 61.92 86.67 61.92 83.01 C 57.28 82.99 52.64 83.00 48.00 83.00 C 48.00 79.00 48.00 75.00 48.00 71.00 C 44.33 71.01 40.67 70.99 37.01 71.00 C 35.30 61.68 33.74 52.34 31.95 43.04 C 37.01 42.96 42.08 43.01 47.15 43.00 C 45.90 37.45 44.96 31.83 43.54 26.33 C 41.53 23.98 37.35 22.28 38.47 18.43 C 39.89 15.19 42.37 10.66 46.59 11.44 C 49.20 12.44 51.78 14.07 53.32 16.45 C 54.66 18.86 53.01 21.32 51.79 23.35 C 56.90 26.18 61.96 29.10 67.14 31.82 C 69.83 27.02 72.89 22.43 75.74 17.72 C 73.78 15.75 71.05 13.23 72.36 10.14 M 75.72 11.95 C 77.08 13.31 78.47 14.65 79.90 15.94 C 81.25 14.60 82.59 13.25 83.94 11.90 C 82.64 10.46 81.30 9.07 79.91 7.72 C 78.38 8.99 76.99 10.41 75.72 11.95 M 42.07 19.87 C 43.60 21.04 45.21 22.10 46.88 23.07 C 48.06 21.54 49.12 19.92 50.05 18.22 C 48.49 17.04 46.86 15.94 45.08 15.13 C 44.05 16.69 43.04 18.27 42.07 19.87 M 110.10 18.30 C 109.73 20.33 111.74 21.98 112.79 23.56 C 114.31 22.60 115.86 21.69 117.46 20.86 C 116.72 19.07 115.82 17.35 114.81 15.70 C 113.18 16.44 111.45 17.09 110.10 18.30 M 69.66 37.88 C 62.31 34.12 55.44 29.33 47.79 26.23 C 48.79 31.85 50.11 37.40 51.23 42.99 C 70.25 43.02 89.27 42.99 108.29 43.00 C 109.42 37.62 110.62 32.25 111.65 26.84 C 110.00 26.56 108.56 27.44 107.17 28.16 C 101.66 31.21 96.11 34.19 90.58 37.20 C 88.30 30.56 84.13 24.69 80.03 19.06 C 75.98 24.93 71.27 30.78 69.66 37.88 M 36.79 47.01 C 37.96 53.67 39.18 60.32 40.33 66.98 C 66.78 67.01 93.22 67.01 119.67 66.98 C 120.82 60.32 122.04 53.67 123.21 47.01 C 94.40 47.00 65.60 47.00 36.79 47.01 M 52.00 71.00 C 52.00 73.67 52.00 76.33 52.00 79.00 C 70.67 79.00 89.33 79.00 108.00 79.00 C 108.00 76.33 108.00 73.67 108.00 71.00 C 89.33 71.00 70.67 71.00 52.00 71.00 M 65.93 83.01 C 65.92 86.67 65.92 90.33 65.93 93.99 C 75.31 94.00 84.69 94.00 94.07 93.99 C 94.08 90.33 94.08 86.67 94.07 83.01 C 84.69 83.00 75.31 83.00 65.93 83.01 M 52.00 98.00 C 52.00 100.67 52.00 103.33 52.00 106.00 C 70.67 106.00 89.33 106.00 108.00 106.00 C 108.00 103.33 108.00 100.67 108.00 98.00 C 89.33 98.00 70.67 98.00 52.00 98.00 M 58.09 110.00 C 54.25 117.32 50.43 124.65 46.62 131.99 C 68.87 132.01 91.13 132.01 113.38 131.99 C 109.57 124.65 105.75 117.32 101.91 110.00 C 87.30 110.00 72.70 110.00 58.09 110.00 M 36.00 136.00 C 36.00 138.67 36.00 141.33 36.00 144.00 C 65.33 144.00 94.67 144.00 124.00 144.00 C 124.00 141.33 124.00 138.67 124.00 136.00 C 94.67 136.00 65.33 136.00 36.00 136.00 Z" />
</g>
<g id="#0078d7ff">
<path fill="#0078d7" opacity="1.00" d=" M 75.72 11.95 C 76.99 10.41 78.38 8.99 79.91 7.72 C 81.30 9.07 82.64 10.46 83.94 11.90 C 82.59 13.25 81.25 14.60 79.90 15.94 C 78.47 14.65 77.08 13.31 75.72 11.95 Z" />
<path fill="#0078d7" opacity="1.00" d=" M 42.07 19.87 C 43.04 18.27 44.05 16.69 45.08 15.13 C 46.86 15.94 48.49 17.04 50.05 18.22 C 49.12 19.92 48.06 21.54 46.88 23.07 C 45.21 22.10 43.60 21.04 42.07 19.87 Z" />
<path fill="#0078d7" opacity="1.00" d=" M 110.10 18.30 C 111.45 17.09 113.18 16.44 114.81 15.70 C 115.82 17.35 116.72 19.07 117.46 20.86 C 115.86 21.69 114.31 22.60 112.79 23.56 C 111.74 21.98 109.73 20.33 110.10 18.30 Z" />
<path fill="#0078d7" opacity="1.00" d=" M 69.66 37.88 C 71.27 30.78 75.98 24.93 80.03 19.06 C 84.13 24.69 88.30 30.56 90.58 37.20 C 96.11 34.19 101.66 31.21 107.17 28.16 C 108.56 27.44 110.00 26.56 111.65 26.84 C 110.62 32.25 109.42 37.62 108.29 43.00 C 89.27 42.99 70.25 43.02 51.23 42.99 C 50.11 37.40 48.79 31.85 47.79 26.23 C 55.44 29.33 62.31 34.12 69.66 37.88 Z" />
<path fill="#0078d7" opacity="1.00" d=" M 36.79 47.01 C 65.60 47.00 94.40 47.00 123.21 47.01 C 122.04 53.67 120.82 60.32 119.67 66.98 C 93.22 67.01 66.78 67.01 40.33 66.98 C 39.18 60.32 37.96 53.67 36.79 47.01 Z" />
<path fill="#0078d7" opacity="1.00" d=" M 52.00 71.00 C 70.67 71.00 89.33 71.00 108.00 71.00 C 108.00 73.67 108.00 76.33 108.00 79.00 C 89.33 79.00 70.67 79.00 52.00 79.00 C 52.00 76.33 52.00 73.67 52.00 71.00 Z" />
<path fill="#0078d7" opacity="1.00" d=" M 65.93 83.01 C 75.31 83.00 84.69 83.00 94.07 83.01 C 94.08 86.67 94.08 90.33 94.07 93.99 C 84.69 94.00 75.31 94.00 65.93 93.99 C 65.92 90.33 65.92 86.67 65.93 83.01 Z" />
<path fill="#0078d7" opacity="1.00" d=" M 52.00 98.00 C 70.67 98.00 89.33 98.00 108.00 98.00 C 108.00 100.67 108.00 103.33 108.00 106.00 C 89.33 106.00 70.67 106.00 52.00 106.00 C 52.00 103.33 52.00 100.67 52.00 98.00 Z" />
<path fill="#0078d7" opacity="1.00" d=" M 58.09 110.00 C 72.70 110.00 87.30 110.00 101.91 110.00 C 105.75 117.32 109.57 124.65 113.38 131.99 C 91.13 132.01 68.87 132.01 46.62 131.99 C 50.43 124.65 54.25 117.32 58.09 110.00 Z" />
<path fill="#0078d7" opacity="1.00" d=" M 36.00 136.00 C 65.33 136.00 94.67 136.00 124.00 136.00 C 124.00 138.67 124.00 141.33 124.00 144.00 C 94.67 144.00 65.33 144.00 36.00 144.00 C 36.00 141.33 36.00 138.67 36.00 136.00 Z" />
</g>
</svg>
